X:1
T:James Gibb editions
T:O little town of Bethlehem (I) - Barnby
%%score [ ( 1 2 ) ( 3 4 ) ]
L:1/8
Q:1/4=80
M:4/4
K:A
V:1 treble nm="Midi_74"
V:2 treble 
V:3 bass nm="Midi_74"
V:4 bass 
V:1
"^Phillips Brooks\n(1835-93)""^Bethlehem Ephratah (86. 86. 76. 86)""^O little town of Bethlehem (I)""^Joseph Barnby\n(1838-96)" A2 | %1
 GA B2 E2 D2 | C3 D E2 || F2 | A2 A2 B2 E2 | c6 || AB | c2 G2 A z AB | c2 G2 AB || c2 | %10
 B2 AE G2 F2 | E6 ||[M:4/4] B2 | e3 e d2 c2 | c4 d2 || c2 | AG AB c2 A2 | B6 || E2 | E3 A A2 A2 | %20
 A3 c c2 | d2 | e6 cA | E4 B4 | A6 ||"^A- men." A4 A4 | %26
V:2
 E2 | D2 D2 C2 B,2 | A,3 A, A,2 || F2 | E2- C2 F2 E2 | E6 || F2 | G2 ^E2 F2 F2 | ^E2 E2 F2 || F2 | %10
 G2 E2 E2 ^D2 | E6 ||[M:4/4] G2 | =G3 G F2 F2 | F4 F2 || ^E2 | F2 F2 E2 ^D2 | E6 || E2 | %19
 E3 E E2 E2 | F3 A A2 | A2 | A6 A,2 | C4 D4 | C6 || D4 C4 | %26
V:3
 C2 | B,2 F,2 G,2 E,2 | E,3 A, A,2 || A,2 | A,2 A,2 A,2 G,2 | A,6 || A,2 | G,2 C2 CB, A,2 | %8
 B,2 C2 CB, || A,2 | G,2 C2 B,2 A,2 | G,6 || %12
[M:4/4]"^1 O little town of Bethlehem,\nhow still we see thee lie!\nabove thy deep and dreamless sleep\nthe silent stars go by:\nyet in thy dark streets shineth\nthe everlasting Light;\nthe hopes and fears of all the years\nare met in thee tonight.\n\n2 O morning stars, together\nproclaim the holy birth,\nand praises sing to God the King,\nand peace to men on earth.\nFor Christ is born of Mary;\nand, gathered all above,\nwhile mortals sleep, the angels keep\ntheir watch of wondering love." B,2 | %13
 B,3 B, B,2 ^A,2 | ^A,4 B,2 || G,2 | F,2 A,2 A,2 A,2 | G,6 || B,2 | %19
"^3 How silently, how silently,\nthe wondrous gift is given!\nso God imparts to human hearts\nthe blessings of his heaven.\nNo ear may hear his coming;\nbut in this world of sin,\nwhere meek souls will receive him, still\nthe dear Christ enters in.\n\n4 O holy Child of Bethlehem,\ndescend to us, we pray;\ncast out our sin, and enter in:\nbe born in us today.\nWe hear the Christmas angels\nthe great glad tidings tell:\nO come to us, abide with us,\nour Lord Emmanuel." C3 C C2 C2 | %20
 C3 A, A,2 | B,2 | (C2 E,2 A,2) C2 | E4 G,4 | A,6 || F,4 E,4 | %26
V:4
 A,,2 | A,,2 A,,2 A,,2 A,,2 | A,,3 B,, C,2 || D,2 | C,2 F,2 D,2 E,2 | A,6 || F,2 | %7
 ^E,2 C,2 F,2 C,2 | G,2 C,2 F,2 || ^D,2 | E,2 A,,2 B,,2 B,,2 | E,6 ||[M:4/4] E,2 | C,3 C, F,2 F,2 | %14
 F,4 B,,2 || C,2 | D,2 D,2 A,,2 F,2 | E,6 || G,2 | A,3 A, A,2 A,2 | F,3 F, F,2 | F,2 | E,6 E,2 | %23
 E,4 E,4 | A,,6 || D,4 A,,4 | %26

